rospo-icon-theme-classic-common/64x64/apps/sanctum-2.svg

<svg height="64" viewBox="0 0 64 64" width="64" xmlns="http://www.w3.org/2000/svg"><path d="m32 5v28h28a28 28 0 0 0 -28-28zm0 28h-28a28 28 0 0 0 28 28z" opacity=".2"/><path d="m32 4v28h28a28 28 0 0 0 -28-28zm0 28h-28a28 28 0 0 0 28 28z" fill="#e4e4e4"/><path d="m32 4v1a28 28 0 0 1 27.949219 27h .050781a28 28 0 0 0 -28-28zm-28 28a28 28 0 0 0  .0507812 1h27.9492188v-1z" fill="#fff" opacity=".2"/><circle cx="32" cy="33" opacity=".2" r="22"/><circle cx="32" cy="32" fill="#fff" r="22"/><circle cx="32" cy="32" fill="#3ca2e4" r="17"/><path d="m26 22.9997h12v10h-12v10h12" style="opacity:.2;fill:none;stroke:#000;stroke-width:6;stroke-linecap:round;stroke-linejoin:round"/><path d="m26 22h12v10h-12v10h12" fill="none" stroke="#ffc34c" stroke-linecap="round" stroke-linejoin="round" stroke-width="6"/><path d="m26 19a3.0003 3.0003 0 0 0 -2.998047 3.492188 3.0003 3.0003 0 0 1 2.998047-2.492188h12a3.0003 3.0003 0 0 1 3 3v-1a3.0003 3.0003 0 0 0 -3-3zm0 10a3.0003 3.0003 0 0 0 -3 3v1a3.0003 3.0003 0 0 1 3-3h9v-1zm3 10v1h9a3.0003 3.0003 0 0 1 2.998047 2.505859 3.0003 3.0003 0 0 0 -2.998047-3.505859z" fill="#fff" fill-rule="evenodd" opacity=".2"/></svg>

<svg xmlns="http://www.w3.org/2000/svg" width="64" height="64" version="1.1" viewBox="0 0 64 64">
 <path d="m 32,5 0,28 28,0 A 28,28 0 0 0 32,5 Z m 0,28 -28,0 a 28,28 0 0 0 28,28 l 0,-28 z" style="opacity:0.2"/>
 <path style="fill:#cccccc" d="m 32,4 0,28 28,0 A 28,28 0 0 0 32,4 Z m 0,28 -28,0 a 28,28 0 0 0 28,28 l 0,-28 z"/>
 <path style="fill:#ffffff;opacity:0.2" d="M 32 4 L 32 5 A 28 28 0 0 1 59.949219 32 L 60 32 A 28 28 0 0 0 32 4 z M 4 32 A 28 28 0 0 0 4.0507812 33 L 32 33 L 32 32 L 4 32 z"/>
 <circle cx="32" cy="33" r="22" style="opacity:0.2"/>
 <circle style="fill:#ffffff" cx="32" cy="32" r="22"/>
 <circle cx="32" cy="32" r="17" style="fill:#3ca2e4"/>
 <path d="m 26,22.9997 12,0 0,10 -12,0 0,10 12,0" style="opacity:0.2;fill:none;stroke:#000000;stroke-width:6;stroke-linecap:round;stroke-linejoin:round"/>
 <path style="fill:none;stroke:#ffc34c;stroke-width:6;stroke-linecap:round;stroke-linejoin:round" d="m 26,22 12,0 0,10 -12,0 0,10 12,0"/>
 <path style="opacity:0.2;fill:#ffffff;fill-rule:evenodd" d="M 26 19 A 3.0003 3.0003 0 0 0 23.001953 22.492188 A 3.0003 3.0003 0 0 1 26 20 L 38 20 A 3.0003 3.0003 0 0 1 41 23 L 41 22 A 3.0003 3.0003 0 0 0 38 19 L 26 19 z M 26 29 A 3.0003 3.0003 0 0 0 23 32 L 23 33 A 3.0003 3.0003 0 0 1 26 30 L 35 30 L 35 29 L 26 29 z M 29 39 L 29 40 L 38 40 A 3.0003 3.0003 0 0 1 40.998047 42.505859 A 3.0003 3.0003 0 0 0 38 39 L 29 39 z"/>
</svg>
